X:1
T:6 Mélodies
T:Chant d'automne
T:4. Chant d'automne
T:Charles Gounod
T:Anonymous
T:6 Mélodies
T:OpenScore (CC0)
T:OpenScore (CC0)
T:OpenScore (CC0)
T:OpenScore (CC0)
T:OpenScore (CC0)
T:OpenScore (CC0)
C:Charles Gounod
Z:Anonymous
Z:OpenScore (CC0)
%%score 1 { ( 2 3 ) | ( 4 5 6 ) }
L:1/8
M:3/4
K:E
V:1 treble nm="Voice"
V:2 treble nm="Piano"
V:3 treble 
V:4 bass 
V:5 bass 
V:6 bass 
V:1
 z6 | z6 | z6 | z6 | z6 | B2 =c4 | z =c =d c B3/2 A/ | =c2 B z G2- | G G A B (dc) | %9
w: |||||Oh! viens,|la fleur dé- jà fa-|né- e Meurt|* sous le re- gard *|
 B3/2 G/ F z F2 | F F F B B3/2 c/ | B2 A2 z E | E G B =c B3/2 G/ | E4- E z | z2 B2 z B | %15
w: du so- leil, Et|de tris- tes- se cou- ron-|né- e La|terre en- tre dans son som-|meil. *|Viens, rê-|
 B A =G2 F (G/A/) | B2 B2 z2 | =c =d e2 d c | B3/2 A/ B2 z B | ^c!<(! =d c d c d!<)! | %20
w: vons aux cho- ses pas- *|sé- es;|Sous ces ar- bres qui|vont fi- nir, Lais-|sons s'ef- feuil- ler nos pen-|
 e2!>(! e B A =G!>)! | F3 F =G3/2 F/ | F2 z F B d | e3 ^A B c | B4 z B | B c =d2 B3/2 G/ | %26
w: sé- es Au tris- te|vent du sou- ve-|nir! Au tris- te|vent du sou- ve-|nir! Puis|re- gar- dant no- tre|
 F2 E2 z B | (A3 e) d3/2 c/ | c2 B z B c | B ^A G2 B c | d4 z d | f2 ^A3 d | (c2 B2) z2 | %33
w: vi- e Joy-|eu- se et bé-|ni- e Lors- que|tout est triste à l'en-|tour, Si|plei- ne d'a-|mour, *|
 G3/2 A/ (F2 B2) | G3/2 A/ F2 B2 | B3/2 B/ e2 d3/2 B/ | c4 B2 | z B e d c d | B G c B A B | %39
w: A ge- noux *|sur la ter- re|A ge- noux sur la|ter- re|Nous ren- drons grâce à|Dieu, Et nous lui fer- ons|
 G B A G E A | (G4 F2) | E2 z2 z2 | z6 | z6 | z6 | z6 | B2 =c4 | =c c (=dc) B A | =c2 B z G2- | %49
w: voeu D'u- ne dou- ble pri-|è- *|re.|||||Oh! viens,|c'est à l'âme * im- mor-|tel- le De|
 G G (AB) d c | B G F z F F | F F B2 B3/2 c/ | B2 A2 E2 | E G B =c B G | E4- E z | z2 z2 B3/2 B/ | %56
w: * rê- ver * sur ce|qui n'est plus C'est à|l'âme heu- reuse et fi-|dè- le De|pleur- er les beaux jours per-|dus _|En fou-|
 B A =G2 F (G/A/) | B2 B2 z B | =c2 e =d c2 | B3/2 A/ B2 z B |!<(! ^c =d c d c d!<)! | %61
w: lant ces feuil- les pas- *|sé- es Son-|geons qu'il en est|i- ci bas De|qui les âm- es sont bles-|
 e2!>(! e B A =G!>)! | F3 F =G3/2 F/ | F3 F B d | e3 ^A B c | B2 z2 B2 | B c =d2 B3/2 G/ | %67
w: sé- es Et dont les|yeux ne sè- chent|pas Et dont les|yeux ne sè- chent|pas! Puis|re- gar- dant no- tre|
 F2 E2 z B | (A3 e) ^d3/2 c/ | c2 B z B c | B ^A G2"^cresc." B c | d4 z d | f2 ^A3 d | (c2 B2) z2 | %74
w: vi- e Joy-|eu- se et bé-|ni- e Lor- sque|tout est triste à l'en-|tour Si|plei- ne d'a-|mour *|
 G3/2 A/ (F2 B2) | G3/2 A/ F2 B2 | B3/2 B/ e2 d3/2 B/ | c4 B2 | z B e d c d | B G c B A B | %80
w: A ge- noux *|sur la ter- re|A ge- noux sur la|ter- re|Nous ren- drons grâce à|Dieu Et nous lui fer- ons|
 G B A G E A | (G4 F2) | E2 z4 | z6 | z6 | z6 | z6 |] %87
w: voeu D'u- ne dou- ble pri-|è- *|re.|||||
V:2
!p! z Bbgfe | aa/g/ ff/g/ a[ad'] | [ge'] Bbgfe | aa/g/ ff/g/ a[ad'] | %4
 ((([dad']2 [ege']2-))) [ege'] z | ([B,EG]2!<(! [=CEA]4-) | %6
 [=CEA]!<)!!>(! [CEA][=DEB][CEA][B,EG][A,EF]!>)! | ([=CEA]2 [B,EG]2) z2 | [B,EG]2 [B,DA][B,EG] EF | %9
 [B,EG]2 [B,DF]2 F2- | F2!<(! F2 G2!<)! | [B,=DG]2!>(! [A,CA]2 [A,=CE]2!>)! | %12
!pp! [G,B,E]2 [G,B,E]2 [G,B,E]2 | (egb=c'bg | e) x x4 | %15
 [=G,B,E][G,B,E][G,B,E][G,B,E] [A,=CE][A,CE] | [=G,B,E][G,B,E][G,B,E][G,B,E][G,B,E][G,B,E] | %17
 [=G,=CE][G,CE][G,CE][G,CE] [A,CE][A,CE] | [=G,B,E][G,B,E][G,B,E][G,B,E][G,B,E][G,B,E] | %19
 .[B,^CE]!<(!.[B,CF].[B,CE].[B,CF].[B,CE].[B,CF]!<)! | %20
 .[B,C=G].[B,CG]!>(!.[B,CG].[B,CG] .[B,CEG].[B,CEG]!>)! | [B,^DF][B,DF][B,DF][B,DF] [^A,EF][A,EF] | %22
 [B,DF][B,DF][B,DF]F [FB][Fd] | [Fce]3 [CEF][G,EF][^A,EF] | [B,DF][B,B][B,B][B,B] [B,B][B,B] | %25
!p! z [=DEGB][DEGB][DEGB][DEGB][DEGB] | z [=DEGB][DEGB][DEGB][DEGB][DEGB] | %27
"_cresc." z [CEA][CEA][EAe][EA^d][EAc] |"_dim." z [CEA][B,EG][B,EG]!p![B,EG][B,EG] | %29
!p! z [B,DG][B,DG][B,DG][B,DG][B,DG] | z [DGB]"_cresc."[DGB][DGB][DGB][DGB] | %31
 z [F^Af][FAf][FAf][FAf][FAf] | z [F^Ae][FBd] [B,D=AB]"_dim."[B,EAB][B,FAB] |!p! [B,GB]2 [B,FAB]4 | %34
 [B,GB]2 [B,FAB]4 |"_cresc." [B,EGB]4 [DFB]2 | [EF^A]4"_dim." [DFB]2- | %37
!p! [DFB] B-[Be][Ad][Gc][FAd] | [EGB][EG][Ec][EB][EA][DB] | %39
 [EG][B,GB][B,DA]"_dim."[B,EG][CE][A,EA] |!p! [B,EG]4 [A,DF]2 | [G,E] (Bbgfe) | %42
 aa/g/ ff/g/ a[ad'] | [ge'] Bbgfe | aa/g/ ff/g/ a[ad'] | [dad']2 [ege']2- [ege'] z | %46
!p! [B,EG]2!<(! [=CEA]4-!<)! |!>(! [CEA] [=CEA][=DEB][CEA][B,EG][A,EF]!>)! | ([=CEA]2 [B,EG]2) z2 | %49
 [EG]2 [DA][EG] EF | [EG]2 [DF]2 F2- | F2!<(! F2 G2!<)! |!>(! [B,=DG]2 [A,CA]2 [A,=CE]2!>)! | %53
!pp! [G,B,E]2 [G,B,E]2 [G,B,E]2 | (egb=c'bg) | e x x4 | %56
 [=G,B,E][G,B,E][G,B,E][G,B,E][A,=CE][A,CE] | [=G,B,E][G,B,E][G,B,E][G,B,E][G,B,E][G,B,E] | %58
 [=G,=CE][G,CE][G,CE][G,CE] [A,CE][A,CE] | [=G,B,E][G,B,E][G,B,E][G,B,E][G,B,E][G,B,E] | %60
!<(! (.[B,^CE].[B,CE].[B,CE].[B,CE].[B,DE].[B,CE])!<)! | %61
 (.[B,C=G].[B,CG].[B,CG].[B,CG].[B,CEG].[B,CEG]) | [B,^DF][B,DF][B,DF][B,DF] [^A,EF][A,EF] | %63
 [B,DF][B,DF][B,DF]F [FB][Fd] | [Fce]3 [CEF][G,EF][^A,EF] | [B,DF][B,B][B,B][B,B][B,B][B,B] | %66
 z [D=EGB][DEGB][DEGB][DEGB][DEGB] | z [=DEGB][DEGB][DEGB][DEGB][DEGB] | %68
"_cresc." z!<(! [CEA][CEA][EAe][EA^d][EAc]!<)! |"_dim." z [CEA][B,EG][B,EG]!p![B,EG][B,EG] | %70
 z!p! [B,DG][B,DG][B,DG][B,DG][B,DG] | z [DGB]"_cresc."[DGB][DGB][DGB][DGB] | %72
 z [F^Af][FAf][FAf][FAf][FAf] | z [F^Ae][FBd]"_dim." [B,D=AB][B,EAB][B,FAB] |!p! [B,GB]2 [B,FAB]4 | %75
 [B,GB]2 [B,FAB]4 |"_cresc." [B,EGB]4 [DFB]2 |"_dim." [EF^A]4 [DFB]2- | %78
!p! [DFB]!<(! B[Be][Ad][Gc][FAd]!<)! | [EGB]"_cresc."[EG][Ec][EB][EA][DB] | %80
 [EG] [B,GB][B,DA]"_dim."[B,EG][CE][A,EA] |!p! [B,EG]4 [A,DF]2 | [G,E] Bbgfe | %83
 aa/g/ ff/g/ a[dad'] | [ege'] Bbgfe | aa/g/ ff/g/ a[dad'] | ((([dad']2 [ege']2-))) [ege'] z |] %87
V:3
 x B- (B4 | [Bd]) [Bd]2 [Bd]2 d | e B- B4- | [Bd] [Bd]2 [Bd]2 d | x6 | x6 | x6 | x6 | x4 C2 | %9
 x4 B,2- | B,C =D2 [B,D]2 | x6 | x6 | x6 | (E=GB=cBG) | x6 | x6 | x6 | x6 | x6 | x6 | x6 | x6 | %23
 x6 | x6 | x6 | x6 | x6 | x6 | x6 | x6 | x6 | x6 | x6 | x6 | x6 | x6 | x6 | x6 | x6 | x6 | %41
 x B- B4- | [Bd] [Bd]2 [Bd]2 d | e B- B4- | [Bd] [Bd]2 [Bd]2 d | x6 | x6 | x6 | x6 | B,2 B,B, C2 | %50
 B,2 B,2 B,2- | B,C =D2 [B,D]2 | x6 | x6 | x6 | (E=GB=cBG) | x6 | x6 | x6 | x6 | x6 | x6 | x6 | %63
 x6 | x6 | x6 | x6 | x6 | x6 | x6 | x6 | x6 | x6 | x6 | x6 | x6 | x6 | x6 | x6 | x6 | x6 | x6 | %82
 x B- B4- | [Bd] [Bd]2 [Bd]2 x | x B- B4- | [Bd] [Bd]2 [Bd]2 x | x6 |] %87
V:4
!p!!ped! z (G [B,G])BAG!ped-up! |!ped! z F/G/ AA/G/ F[FB]!ped-up! |!ped! z G GBAG!ped-up! | %3
!ped! z F/G/ AA/G/ F[FB]!ped-up! |!ped! z [B,FAB] [B,EG]2- [B,EG] z!ped-up! | z2 E,2 !>!E,2- | %6
 ([A,,E,]6 | [E,,E,]4) z2 | E,4 E,2 | B,,4 B,,C, | =D,E, F,2 E,2- | E,=F, E,2 E,2 | x6 | %13
!ped! z2 [G,B,EG]2 [G,B,EG]2 | (E,!ped-up!=G,B,=CB,G,) | E,6 | E,4 =D,2 | =C,4 A,,2 | E,,4 E,2 | %19
 [E,=G,]2 [E,G,]2 [E,G,]2 | [E,=G,]4 [E,,E,]2 | [F,,F,]4 [F,,F,]2 | %22
!ped! B,,,F,,B,,D, F,B,!ped-up! |!ped! ^A,G,F,E,!ped-up! D,C, | [B,,,B,,]2- [B,,,B,,] z z2 | %25
!ped! z [G,B,][G,B,][G,B,][G,B,][G,B,]!ped-up! |!ped! z [G,B,][G,B,][G,B,][G,B,][G,B,]!ped-up! | %27
!ped! z [E,A,][E,A,][E,C][E,C][E,C]!ped-up! |!ped! z [C,E,A,][B,,E,G,] z z2!ped-up! | %29
 z [D,G,][D,G,][D,G,][D,G,][D,G,] |!ped! z [D,G,B,][D,G,B,][D,G,B,][D,G,B,][D,G,B,]!ped-up! | %31
!ped! z [F,CE]"^molto."[F,CE][F,CE][F,CE][F,CE] | z [F,CE][F,B,D]!ped-up! B,,[B,,C,][B,,D,] | %33
!ped! E,2 C,2 D,2!ped-up! |!ped! E,2 C,2 D,2!ped-up! | ([E,,E,]B,,G,,E, B,,D,) | (F,,C,F,C B,F,) | %37
 B,, (=AGFEB,-) | ([G,B,][E,B,][A,C][G,C][F,C][B,,F,B,-]) | %39
 [E,B,] ([E,,E,][F,,E,][G,,E,][A,,E,][C,E,]) | (G,E, B,,2) B,,2 |!ped! z (G[B,G])BAG!ped-up! | %42
!ped! z F/G/ AA/G/ F[FB]!ped-up! |!ped! z (G G)BAG!ped-up! |!ped! z F/G/ AA/G/ F[FB]!ped-up! | %45
!ped! z [B,FAB] [B,EG]2- [B,EG] z!ped-up! | z2 z2 E,2- | ([A,,E,]6 | [E,,E,]4) z2 | E,4 E,2 | %50
 B,,4 B,,C, | =D,E, F,2 E,2- | E,=F, E,2 E,2 | [E,,B,,E,]2 [E,,B,,E,]2 [E,,B,,E,]2 | %54
!ped! z2 [G,B,EG]2 [G,B,EG]2!ped-up! | (E,=G,B,=CB,G,) | E,6 | E,4 =D,2 | =C,4 A,,2 | E,,4 E,2 | %60
 [E,=G,]2 [E,G,]2 [E,G,]2 | [E,=G,]4 [E,,E,]2 | [F,,F,]4 [F,,F,]2 | %63
!ped! B,,,F,,B,,D, F,B,!ped-up! |!ped! ^A,G,F,E,!ped-up! D,C, | [B,,,B,,]2- [B,,,B,,] z z2 | %66
!ped! z [G,B,][G,B,][G,B,][G,B,][G,B,]!ped-up! | %67
!ped! z [G,B,][G,B,][G,B,][E,G,B,][E,G,B,]!ped-up! |!ped! z [E,A,][E,A,][E,C][E,C][E,C]!ped-up! | %69
!ped! z ([C,E,A,][B,,E,G,]) z z2!ped-up! | z [D,G,][D,G,][D,G,][D,G,][D,G,] | %71
!ped! z [D,G,B,][D,G,B,][D,G,B,][D,G,B,][D,G,B,]!ped-up! | %72
!ped! z"^molto" [F,CE][F,CE][F,CE][F,CE][F,CE] | z [F,CE][F,B,D]!ped-up! B,,[B,,C,][B,,D,] | %74
!ped! E,2 C,2 D,2!ped-up! |!ped! E,2 C,2 D,2!ped-up! | ([E,,E,]B,,G,,E, B,,D,) | (F,,C,F,C B,F,) | %78
 B,, (AGFEB,-) | ([G,B,][E,B,][A,C][G,C][F,C][B,,F,B,-]) | %80
 [E,B,] ([E,,E,][F,,E,][G,,E,][A,,E,][C,E,]) | G,E, B,,2 B,,2 |!ped! z G-[B,G]BAG!ped-up! | %83
!ped! z F/G/ AA/G/ F[FB]!ped-up! |!ped! z (G G)BAG!ped-up! |!ped! z F/G/ AA/G/ F[FB]!ped-up! | %86
!ped! z [B,FAB] [B,EG]2- [B,EG] z!ped-up! |] %87
V:5
 [E,,B,,]6 | [B,,,B,,]6 | [E,,B,,]6 | [B,,,B,,]6 | [E,,B,,]4- [E,,B,,] z | x6 | x6 | x6 | %8
 z E,,F,,G,, A,,2 | x4 B,,2- | B,,2 B,,2 E,,2 | A,,4 A,,2 | [E,,B,,E,]2 [E,,B,,E,]2 [E,,B,,E,]2 | %13
 [E,,B,,E,]6 | E,, x x4 | x6 | x6 | x6 | x6 | x6 | x6 | x6 | B,,,4 D,,2 | F,,4 F,,2 | x6 | E,,6 | %26
 E,,6 | E,,6 | E,,6 | G,,6 | G,,6 | [F,,,F,,]6 | [B,,,F,,]2- [B,,,F,,] x x2 | z B,,,2 B,,,2 B,,,- | %34
 B,,, B,,,2 B,,,2 B,,, | x6 | x6 | x6 | x6 | x6 | B,,4 B,,2 | [E,,B,,]6 | [B,,,B,,]6 | [E,,B,,]6 | %44
 [B,,,B,,]6 | [E,,B,,]4- [E,,B,,] z | x6 | x6 | x6 | z E,,F,,G,, A,,2 | x4 B,,2- | B,,2 B,,2 E,,2 | %52
 A,,4 A,,2 | x6 | [E,,B,,E,]6 | E,, x x4 | x6 | x6 | x6 | x6 | x6 | x6 | x6 | B,,,4 D,,2 | %64
 F,,4 F,,2 | x6 | E,,6 | E,,6 | E,,6 | E,,6 | G,,6 | G,,6 | [F,,,F,,]6 | %73
 [B,,,F,,]2- [B,,,F,,] x x2 | z B,,,2 B,,,2 B,,,- | B,,, B,,,2 B,,,2 B,,, | x6 | x6 | x6 | x6 | %80
 x6 | B,,4 B,,2 | [E,,B,,]6 | [B,,,B,,]6 | [E,,B,,]6 | [B,,,B,,]6 | [E,,B,,]4- [E,,B,,] z |] %87
V:6
 x2 B,4 | x B,2 B,2 B, | x2 B,4 | x B,2 B,2 B, | x6 | x6 | x6 | x6 | x6 | x6 | x6 | x6 | x6 | x6 | %14
 x6 | x6 | x6 | x6 | x6 | x6 | x6 | x6 | x6 | x6 | x6 | x6 | x6 | x6 | x6 | x6 | x6 | x6 | x6 | %33
 x6 | x6 | x6 | x6 | x6 | x6 | x6 | x6 | x2 B,4 | x B,2 B,2 B, | x2 B,4 | x B,2 B,2 B, | x6 | x6 | %47
 x6 | x6 | x6 | x6 | x6 | x6 | x6 | x6 | x6 | x6 | x6 | x6 | x6 | x6 | x6 | x6 | x6 | x6 | x6 | %66
 x6 | x6 | x6 | x6 | x6 | x6 | x6 | x6 | x6 | x6 | x6 | x6 | x6 | x6 | x6 | x6 | x2 B,4 | %83
 x B,2 B,2 B, | x2 B,4 | x B,2 B,2 B, | x6 |] %87

